X: 605
T: Dûş Olma Aşk Belâsına
C: Ahmet Mithat Güpgüpoğlu
O: Turkey
F: http://compmusic.upf.edu/node/140
N: hicazkar--sarki--katikofti--dus_olma--ahmet_mithat_gupgupoglu
N: makam= hicazkar
N: form= sarki
N: usul= katikofti = 8/8
M: 8/8
L: 1/16
K: C _1/4B _7/8e _7/8A ^f
Q: 1/4=108
%%MIDI tuningsystem comma53
f2g2 b2a2 g2gf efg2  | d2e2 g2f3efe edd2  | \
w:  ARANAĞME  |   | 
dede dcde fgfe dcB2  | 
w:   | 
G2A2 G2d2 cBBA Bcd2  | BcBc BAd2 cBBA AGG2  | 
w:   |   | 
f2g2 b2a2 g2gf efg2  | d2e2 g2f3efe edd2  | \
w:  ARANAĞME  |   | 
dede dcde fgfe dcB2  | 
w:   | 
G2A2 G2d2 cBBA Bcd2  | BcBc BAd2 cBBA AGG2  | 
w:   |   | 
_b2=a2 g2c'b baag fga2  | f2g2 _b=aag gffe edd2  | 
w:  Dûş_ ol ma  aşk  *  be *  lâ *  sı *  na    |  Tu tul ma  *  yâr  *  sev *  dâ *  sı *  na    | 
_b2=a2 g2c'b baag fga2  | f2g2 _b=aag gffe edd2  | 
w:  Dûş_ ol ma  aşk  *  be *  lâ *  sı *  na    |  Tu tul ma  *  yâr  *  sev *  dâ *  sı *  na    | 
b2a2 g2g2 f2e2 d2e2  | dede dcde fgfe dcB2  | 
w:  Bin  der din  var ken  sa taş ma    |  Bin  *  der *  din  *  var *  ken  *  sa *  taş *  ma    | 
G2A2 G2d2 cBBA Bcd2  | BcBc BAd2 cBBA AGG2  | 
w:  Ağ yâr la  yâr  kav *  ga *  sı *  na    |  Ağ *  yâr *  la  *  yâr  kav *  ga *  sı *  na    | 
f2g2 b2a2 g2gf efg2  | d2e2 g2f3efe edd2  | \
w:  ARANAĞME  |   | 
dede dcde fgfe dcB2  | 
w:   | 
G2A2 G2d2 cBBA Bcd2  | BcBc BAd2 cBBA AGG2  | 
w:   |   | 
f2g2 b2a2 g2gf efg2  | d2e2 g2f3efe edd2  | \
w:  ARANAĞME  |   | 
dede dcde fgfe dcB2  | 
w:   | 
G2A2 G2d2 cBBA Bcd2  | BcBc BAd2 cBBA AGG2  | 
w:   |   | 
G2d2 d2d2 e2dc Bcd2  | B2B2 G2d2 cBBA AGG2  | 
w:  Kıs kanç lık  der din  fe *  nâ *  sı    |  Hiç  yok tur  â nın  *  de *  vâ *  sı    | 
f2b2 a2g2 f2e2 d2e2  | dede dcde fgfe dcB2  | 
w:  Ak lı nı  ba şı na  top la    |  Ak *  lı *  nı  *  ba *  şı *  na  *  top *  la    | 
G2A2 G2d2 cBBA Bcd2  | BcBc BAd2 cBBA AGG2  | 
w:  Kıs kan cın  mak ber  *  yu *  va *  sı    |  Kıs *  kan *  cın  *  mah bes  *  yu *  va *  sı    | 
|


